; generated by PrusaSlicer 2.2.0+linux-x64 on 2020-06-20 at 14:28:44 UTC

; 

; external perimeters extrusion width = 0.45mm
; perimeters extrusion width = 0.45mm
; infill extrusion width = 0.45mm
; solid infill extrusion width = 0.45mm
; top infill extrusion width = 0.40mm
; support material extrusion width = 0.38mm
; first layer extrusion width = 0.42mm

M201 X500 Y500 Z100 E5000 ; sets maximum accelerations, mm/sec^2
M203 X500 Y500 Z10 E60 ; sets maximum feedrates, mm/sec
M204 P500 R1000 T500 ; sets acceleration (P, T) and retract acceleration (R), mm/sec^2
M205 X8.00 Y8.00 Z0.40 E5.00 ; sets the jerk limits, mm/sec
M205 S0 T0 ; sets the minimum extruding and travel feed rate, mm/sec
M107
G90 ; use absolute coordinates
M83 ; extruder relative mode
M104 S245 ; set extruder temp
M140 S90 ; set bed temp
M190 S90 ; wait for bed temp
M109 S245 ; wait for extruder temp
G28 ; home all
G1 Z2 F240
G1 X2 Y10 F3000
G1 Z0.28 F240
G92 E0.0
G1 Y190 E15.0 F1500.0 ; intro line
G1 X2.3 F5000
G1 Y10 E30 F1200.0 ; intro line
G92 E0.0
G21 ; set units to millimeters
G90 ; use absolute coordinates
M83 ; use relative distances for extrusion
; Filament gcode
;BEFORE_LAYER_CHANGE
;0.2


G1 E-5.00000 F3600.00000
G1 Z0.200 F9000.000
;AFTER_LAYER_CHANGE
;0.2
G1 X101.896 Y88.222
G1 E5.00000 F2400.00000
G1 F1200.000
G1 X102.427 Y88.155 E0.01680
G1 X119.808 Y88.155 E0.54496
G1 X120.318 Y88.211 E0.01609
G1 X120.808 Y88.377 E0.01621
G1 X121.247 Y88.643 E0.01609
G1 X121.619 Y88.996 E0.01609
G1 X130.748 Y100.866 E0.46952
G1 X131.085 Y101.482 E0.02201
G1 X131.231 Y102.284 E0.02555
G1 X131.231 Y117.870 E0.48871
G1 X131.047 Y118.783 E0.02919
G1 X130.746 Y119.306 E0.01894
G1 X121.670 Y131.111 E0.46687
G1 X121.260 Y131.517 E0.01811
G1 X120.767 Y131.811 E0.01799
G1 X120.297 Y131.963 E0.01550
G1 X119.804 Y132.015 E0.01553
G1 X102.436 Y132.015 E0.54458
G1 X101.542 Y131.831 E0.02860
G1 X101.111 Y131.596 E0.01538
G1 X100.738 Y131.278 E0.01538
G1 X89.407 Y119.318 E0.51657
G1 X88.974 Y118.663 E0.02461
G1 X88.821 Y118.193 E0.01550
G1 X88.769 Y117.702 E0.01550
G1 X88.769 Y104.457 E0.41528
G1 X88.953 Y103.571 E0.02837
G1 X89.292 Y103.000 E0.02083
G1 X100.621 Y89.023 E0.56412
G1 X100.976 Y88.673 E0.01562
G1 X101.396 Y88.405 E0.01562
G1 X101.839 Y88.243 E0.01480
G1 E-3.50000 F3600.00000
G1 F7200.000
G1 X102.427 Y88.155 E-0.28242
G1 X104.833 Y88.155 E-1.14258
G1 E-0.07500 F3600.00000
G1 X102.458 Y97.588 F9000.000
G1 E5.00000 F2400.00000
G1 F1200.000
G1 X102.458 Y90.532 E0.22125
G1 X103.213 Y90.532 E0.02365
G1 X103.213 Y96.957 E0.20147
G1 X103.967 Y96.608 E0.02606
G1 X103.967 Y90.532 E0.19052
G1 X104.721 Y90.532 E0.02365
G1 X104.721 Y96.276 E0.18011
G1 X105.475 Y96.020 E0.02498
G1 X105.475 Y90.532 E0.17207
G1 X106.229 Y90.532 E0.02365
G1 X106.229 Y95.789 E0.16484
G1 X106.983 Y95.611 E0.02429
G1 X106.983 Y90.532 E0.15927
G1 X107.738 Y90.532 E0.02365
G1 X107.738 Y95.473 E0.15494
G1 X108.492 Y95.370 E0.02387
G1 X108.492 Y90.532 E0.15170
G1 X109.246 Y90.532 E0.02365
G1 X109.246 Y95.319 E0.15011
G1 X110.000 Y95.286 E0.02367
G1 X110.000 Y90.532 E0.14905
G1 X110.754 Y90.532 E0.02365
G1 X110.754 Y95.319 E0.15011
G1 X111.508 Y95.370 E0.02370
G1 X111.508 Y90.532 E0.15170
G1 X112.262 Y90.532 E0.02365
G1 X112.262 Y95.473 E0.15494
G1 X112.696 Y95.537 E0.01375
G1 X113.017 Y95.611 E0.01032
G1 X113.017 Y90.532 E0.15927
G1 X113.771 Y90.532 E0.02365
G1 X113.771 Y95.789 E0.16484
G1 X114.062 Y95.863 E0.00941
G1 X114.525 Y96.020 E0.01534
G1 X114.525 Y90.532 E0.17207
G1 X115.279 Y90.532 E0.02365
G1 X115.279 Y96.276 E0.18011
G1 X116.033 Y96.608 E0.02583
G1 X116.033 Y90.532 E0.19052
G1 X116.787 Y90.532 E0.02365
G1 X116.787 Y96.957 E0.20147
G1 X117.542 Y97.392 E0.02729
G1 X117.542 Y90.532 E0.21509
G1 X118.296 Y90.532 E0.02365
G1 X118.296 Y97.866 E0.22997
G1 X119.050 Y98.416 E0.02927
G1 X119.050 Y90.532 E0.24721
G1 X119.804 Y90.532 E0.02365
G1 X119.804 Y99.033 E0.26654
G1 E-3.50000 F3600.00000
G1 F7200.000
G1 X119.804 Y96.033 E-1.42500
G1 E-0.07500 F3600.00000
G1 X122.821 Y102.133 F9000.000
G1 E5.00000 F2400.00000
G1 F1200.000
G1 X122.821 Y102.822 E0.02160
G1 X123.099 Y103.323 E0.01797
G1 X123.575 Y104.367 E0.03598
G1 X123.575 Y102.303 E0.06472
G1 X124.329 Y102.303 E0.02365
G1 X124.329 Y107.544 E0.16433
G1 E-3.50000 F3600.00000
G1 F7200.000
G1 X124.329 Y104.544 E-1.42500
G1 E-0.07500 F3600.00000
G1 X122.821 Y116.841 F9000.000
G1 E5.00000 F2400.00000
G1 F1200.000
G1 X122.821 Y117.697 E0.02684
G1 X123.575 Y117.697 E0.02365
G1 X123.575 Y115.633 E0.06472
G1 X123.711 Y115.319 E0.01071
G1 X124.134 Y114.075 E0.04121
G1 X124.329 Y113.270 E0.02597
G1 X124.329 Y117.697 E0.13880
G1 X125.083 Y117.697 E0.02365
G1 X125.083 Y102.303 E0.48267
G1 X125.837 Y102.303 E0.02365
G1 X125.837 Y117.697 E0.48267
G1 X126.591 Y117.697 E0.02365
G1 X126.591 Y102.303 E0.48267
G1 X127.346 Y102.303 E0.02365
G1 X127.346 Y117.697 E0.48267
G1 X128.100 Y117.697 E0.02365
G1 X128.100 Y102.303 E0.48267
G1 X128.854 Y102.303 E0.02365
G1 X128.854 Y117.867 E0.48799
G1 E-3.50000 F3600.00000
G1 F7200.000
G1 X128.854 Y114.867 E-1.42500
G1 E-0.07500 F3600.00000
G1 X119.804 Y129.638 F9000.000
G1 E5.00000 F2400.00000
G1 F1200.000
G1 X119.804 Y121.137 E0.26654
G1 X119.588 Y121.137 E0.00678
G1 X119.286 Y121.409 E0.01272
G1 X119.050 Y121.584 E0.00922
G1 X119.050 Y129.468 E0.24721
G1 X118.296 Y129.468 E0.02365
G1 X118.296 Y122.134 E0.22996
G1 X118.048 Y122.313 E0.00958
G1 X117.542 Y122.608 E0.01839
G1 X117.542 Y129.468 E0.21509
G1 X116.787 Y129.468 E0.02365
G1 X116.787 Y123.043 E0.20147
G1 X116.033 Y123.392 E0.02606
G1 X116.033 Y129.468 E0.19052
G1 X115.279 Y129.468 E0.02365
G1 X115.279 Y123.724 E0.18011
G1 X114.525 Y123.980 E0.02498
G1 X114.525 Y129.468 E0.17207
G1 X113.771 Y129.468 E0.02365
G1 X113.771 Y124.211 E0.16484
G1 X113.017 Y124.389 E0.02429
G1 X113.017 Y129.468 E0.15927
G1 X112.262 Y129.468 E0.02365
G1 X112.262 Y124.527 E0.15494
G1 X111.508 Y124.630 E0.02387
G1 X111.508 Y129.468 E0.15170
G1 X110.754 Y129.468 E0.02365
G1 X110.754 Y124.681 E0.15011
G1 X110.000 Y124.714 E0.02367
G1 X110.000 Y129.468 E0.14905
G1 X109.246 Y129.468 E0.02365
G1 X109.246 Y124.681 E0.15011
G1 X108.492 Y124.630 E0.02370
G1 X108.492 Y129.468 E0.15170
G1 X107.738 Y129.468 E0.02365
G1 X107.738 Y124.527 E0.15494
G1 X107.304 Y124.463 E0.01375
G1 X106.983 Y124.389 E0.01032
G1 X106.983 Y129.468 E0.15927
G1 X106.229 Y129.468 E0.02365
G1 X106.229 Y124.211 E0.16484
G1 X105.938 Y124.137 E0.00941
G1 X105.475 Y123.980 E0.01534
G1 X105.475 Y129.468 E0.17207
G1 X104.721 Y129.468 E0.02365
G1 X104.721 Y123.724 E0.18011
G1 X103.967 Y123.392 E0.02583
G1 X103.967 Y129.468 E0.19052
G1 X103.213 Y129.468 E0.02365
G1 X103.213 Y123.043 E0.20147
G1 X102.458 Y122.608 E0.02729
G1 X102.458 Y129.638 E0.22041
G1 E-3.50000 F3600.00000
G1 F7200.000
G1 X102.458 Y126.638 E-1.42500
G1 E-0.07500 F3600.00000
G1 X97.179 Y117.867 F9000.000
G1 E5.00000 F2400.00000
G1 F1200.000
G1 X97.179 Y117.178 E0.02160
G1 X96.901 Y116.677 E0.01797
G1 X96.425 Y115.633 E0.03598
G1 X96.425 Y117.697 E0.06472
G1 X95.671 Y117.697 E0.02365
G1 X95.671 Y113.270 E0.13880
G1 X95.537 Y112.696 E0.01848
G1 X95.349 Y111.352 E0.04255
G1 X95.286 Y109.990 E0.04277
G1 X95.349 Y108.648 E0.04212
G1 X95.537 Y107.304 E0.04255
G1 X95.671 Y106.730 E0.01848
G1 X95.671 Y104.657 E0.06498
G1 X94.917 Y104.657 E0.02365
G1 X94.917 Y117.697 E0.40885
G1 X94.163 Y117.697 E0.02365
G1 X94.163 Y104.657 E0.40885
G1 X93.409 Y104.657 E0.02365
G1 X93.409 Y117.697 E0.40885
G1 X92.654 Y117.697 E0.02365
G1 X92.654 Y104.657 E0.40885
G1 X91.900 Y104.657 E0.02365
G1 X91.900 Y117.697 E0.40885
G1 X91.146 Y117.697 E0.02365
G1 X91.146 Y104.488 E0.41417
G1 E-3.50000 F3600.00000
G1 F7200.000
G1 X91.146 Y107.488 E-1.42500
G1 E-0.07500 F3600.00000
G1 X107.383 Y104.033 F9000.000
G1 E5.00000 F2400.00000
G1 F1200.000
G1 X112.252 Y104.033 E0.15267
G1 X112.252 Y115.183 E0.34960
G1 X107.383 Y115.183 E0.15267
G1 X107.383 Y104.093 E0.34772
G1 X107.760 Y104.410 F9000.000
G1 F1200.000
G1 X111.875 Y104.410 E0.12902
G1 X111.875 Y114.806 E0.32595
G1 X107.760 Y114.806 E0.12902
G1 X107.760 Y104.470 E0.32407
G1 X108.137 Y104.788 F9000.000
G1 F1200.000
G1 X111.498 Y104.788 E0.10538
G1 X111.498 Y114.429 E0.30231
G1 X108.137 Y114.429 E0.10538
G1 X108.137 Y104.848 E0.30043
G1 X108.093 Y104.390 F9000.000
G1 E-3.50000 F3600.00000
G1 F7200.000
G1 X111.137 Y104.794 E-1.42500
G1 E-0.07500 F3600.00000
G1 X105.115 Y97.649 F9000.000
G1 E5.00000 F2400.00000
G1 F1200.000
G1 X106.335 Y97.230 E0.04045
G1 X107.564 Y96.937 E0.03960
G1 X108.789 Y96.765 E0.03880
G1 X110.001 Y96.709 E0.03802
G1 X111.207 Y96.765 E0.03788
G1 X112.436 Y96.937 E0.03890
G1 X113.665 Y97.230 E0.03960
G1 X114.885 Y97.649 E0.04045
G1 X116.199 Y98.255 E0.04537
G1 X117.278 Y98.885 E0.03920
G1 X118.379 Y99.688 E0.04271
G1 X119.395 Y100.605 E0.04291
G1 X120.312 Y101.622 E0.04294
G1 X121.115 Y102.721 E0.04268
G1 X121.745 Y103.801 E0.03921
G1 X122.352 Y105.115 E0.04537
G1 X122.770 Y106.335 E0.04044
G1 X123.063 Y107.563 E0.03960
G1 X123.234 Y108.789 E0.03881
G1 X123.291 Y110.000 E0.03800
G1 X123.234 Y111.211 E0.03800
G1 X123.063 Y112.437 E0.03881
G1 X122.770 Y113.665 E0.03960
G1 X122.352 Y114.885 E0.04044
G1 X121.745 Y116.199 E0.04537
G1 X121.115 Y117.279 E0.03921
G1 X120.312 Y118.378 E0.04268
G1 X119.395 Y119.395 E0.04294
G1 X118.379 Y120.312 E0.04291
G1 X117.278 Y121.115 E0.04271
G1 X116.199 Y121.745 E0.03920
G1 X114.885 Y122.351 E0.04537
G1 X113.665 Y122.770 E0.04045
G1 X112.436 Y123.063 E0.03960
G1 X111.211 Y123.235 E0.03880
G1 X110.000 Y123.291 E0.03800
G1 X108.789 Y123.235 E0.03800
G1 X107.564 Y123.063 E0.03880
G1 X106.335 Y122.770 E0.03960
G1 X105.115 Y122.351 E0.04045
G1 X103.801 Y121.745 E0.04537
G1 X102.722 Y121.115 E0.03920
G1 X101.621 Y120.312 E0.04271
G1 X100.605 Y119.395 E0.04291
G1 X99.688 Y118.378 E0.04294
G1 X98.885 Y117.279 E0.04268
G1 X98.255 Y116.199 E0.03921
G1 X97.648 Y114.885 E0.04537
G1 X97.230 Y113.665 E0.04044
G1 X96.937 Y112.437 E0.03960
G1 X96.766 Y111.211 E0.03881
G1 X96.709 Y110.000 E0.03800
G1 X96.766 Y108.789 E0.03800
G1 X96.937 Y107.563 E0.03881
G1 X97.230 Y106.335 E0.03960
G1 X97.648 Y105.115 E0.04044
G1 X98.255 Y103.801 E0.04537
G1 X98.885 Y102.721 E0.03921
G1 X99.688 Y101.622 E0.04268
G1 X100.605 Y100.605 E0.04294
G1 X101.621 Y99.688 E0.04291
G1 X102.722 Y98.885 E0.04271
G1 X103.801 Y98.255 E0.03920
G1 X105.061 Y97.674 E0.04349
G1 X104.903 Y97.332 F9000.000
G1 F1200.000
G1 X106.230 Y96.867 E0.04409
G1 X107.494 Y96.566 E0.04074
G1 X108.754 Y96.390 E0.03991
G1 X110.000 Y96.332 E0.03911
G1 X111.244 Y96.389 E0.03902
G1 X112.506 Y96.566 E0.03998
G1 X113.770 Y96.867 E0.04074
G1 X115.025 Y97.298 E0.04162
G1 X116.373 Y97.921 E0.04654
G1 X117.485 Y98.569 E0.04037
G1 X118.617 Y99.395 E0.04393
G1 X119.662 Y100.338 E0.04413
G1 X120.605 Y101.384 E0.04415
G1 X121.431 Y102.514 E0.04390
G1 X122.080 Y103.627 E0.04038
G1 X122.702 Y104.974 E0.04654
G1 X123.133 Y106.230 E0.04161
G1 X123.434 Y107.494 E0.04074
G1 X123.610 Y108.755 E0.03992
G1 X123.668 Y110.000 E0.03909
G1 X123.610 Y111.245 E0.03909
G1 X123.434 Y112.506 E0.03992
G1 X123.133 Y113.770 E0.04074
G1 X122.702 Y115.026 E0.04161
G1 X122.080 Y116.373 E0.04654
G1 X121.431 Y117.486 E0.04038
G1 X120.605 Y118.616 E0.04390
G1 X119.662 Y119.662 E0.04415
G1 X118.617 Y120.605 E0.04413
G1 X117.485 Y121.431 E0.04393
G1 X116.373 Y122.079 E0.04037
G1 X115.025 Y122.702 E0.04654
G1 X113.770 Y123.133 E0.04162
G1 X112.506 Y123.434 E0.04074
G1 X111.246 Y123.610 E0.03991
G1 X110.000 Y123.668 E0.03910
G1 X108.754 Y123.610 E0.03910
G1 X107.494 Y123.434 E0.03991
G1 X106.230 Y123.133 E0.04074
G1 X104.975 Y122.702 E0.04162
G1 X103.627 Y122.079 E0.04654
G1 X102.515 Y121.431 E0.04037
G1 X101.383 Y120.605 E0.04393
G1 X100.338 Y119.662 E0.04413
G1 X99.395 Y118.616 E0.04415
G1 X98.569 Y117.486 E0.04390
G1 X97.920 Y116.373 E0.04038
G1 X97.298 Y115.026 E0.04654
G1 X96.867 Y113.770 E0.04161
G1 X96.566 Y112.506 E0.04074
G1 X96.390 Y111.245 E0.03992
G1 X96.332 Y110.000 E0.03909
G1 X96.390 Y108.755 E0.03909
G1 X96.566 Y107.494 E0.03992
G1 X96.867 Y106.230 E0.04074
G1 X97.298 Y104.974 E0.04161
G1 X97.920 Y103.627 E0.04654
G1 X98.569 Y102.514 E0.04038
G1 X99.395 Y101.384 E0.04390
G1 X100.338 Y100.338 E0.04415
G1 X101.383 Y99.395 E0.04413
G1 X102.515 Y98.569 E0.04393
G1 X103.627 Y97.921 E0.04037
G1 X104.848 Y97.357 E0.04217
G1 X104.690 Y97.014 F9000.000
G1 F1200.000
G1 X104.834 Y96.948 E0.00497
G1 X106.125 Y96.505 E0.04279
G1 X107.424 Y96.195 E0.04188
G1 X108.719 Y96.014 E0.04102
G1 X110.000 Y95.954 E0.04020
G1 X111.280 Y96.014 E0.04017
G1 X112.576 Y96.195 E0.04105
G1 X113.875 Y96.505 E0.04188
G1 X115.166 Y96.948 E0.04279
G1 X116.547 Y97.586 E0.04770
G1 X117.692 Y98.253 E0.04154
G1 X118.855 Y99.102 E0.04515
G1 X119.929 Y100.071 E0.04535
G1 X120.898 Y101.146 E0.04537
G1 X121.747 Y102.308 E0.04512
G1 X122.414 Y103.452 E0.04156
G1 X123.053 Y104.834 E0.04771
G1 X123.496 Y106.125 E0.04279
G1 X123.805 Y107.424 E0.04187
G1 X123.986 Y108.720 E0.04104
G1 X124.046 Y110.000 E0.04018
G1 X123.986 Y111.280 E0.04018
G1 X123.805 Y112.576 E0.04104
G1 X123.496 Y113.875 E0.04187
G1 X123.053 Y115.166 E0.04279
G1 X122.414 Y116.548 E0.04771
G1 X121.747 Y117.692 E0.04155
G1 X120.898 Y118.854 E0.04512
G1 X119.929 Y119.929 E0.04537
G1 X118.855 Y120.898 E0.04535
G1 X117.692 Y121.747 E0.04515
G1 X116.547 Y122.414 E0.04154
G1 X115.166 Y123.052 E0.04770
G1 X113.875 Y123.495 E0.04279
G1 X112.576 Y123.805 E0.04188
G1 X111.281 Y123.986 E0.04102
G1 X110.000 Y124.046 E0.04019
G1 X108.719 Y123.986 E0.04019
G1 X107.424 Y123.805 E0.04102
G1 X106.125 Y123.495 E0.04188
G1 X104.834 Y123.052 E0.04279
G1 X103.453 Y122.414 E0.04770
G1 X102.308 Y121.747 E0.04154
G1 X101.145 Y120.898 E0.04515
G1 X100.071 Y119.929 E0.04535
G1 X99.102 Y118.854 E0.04537
G1 X98.253 Y117.692 E0.04512
G1 X97.586 Y116.548 E0.04155
G1 X96.947 Y115.166 E0.04771
G1 X96.504 Y113.875 E0.04279
G1 X96.195 Y112.576 E0.04187
G1 X96.014 Y111.280 E0.04104
G1 X95.954 Y110.000 E0.04018
G1 X96.014 Y108.720 E0.04018
G1 X96.195 Y107.424 E0.04104
G1 X96.504 Y106.125 E0.04187
G1 X96.947 Y104.834 E0.04279
G1 X97.586 Y103.452 E0.04771
G1 X98.253 Y102.308 E0.04156
G1 X99.102 Y101.146 E0.04512
G1 X100.071 Y100.071 E0.04537
G1 X101.145 Y99.102 E0.04535
G1 X102.308 Y98.253 E0.04515
G1 X103.453 Y97.586 E0.04154
G1 X104.636 Y97.040 E0.04085
G1 X104.821 Y97.104 F9000.000
G1 E-3.50000 F3600.00000
G1 F7200.000
G1 X104.834 Y96.948 E-0.10376
G1 X106.125 Y96.505 E-0.64824
G1 X107.424 Y96.195 E-0.63440
G1 X107.504 Y96.183 E-0.03860
G1 E-0.07500 F3600.00000
G1 X120.617 Y102.231 F9000.000
G1 E5.00000 F2400.00000
G1 F1200.000
G1 X119.159 Y100.773 E0.06555
G1 X118.200 Y99.908 E0.04107
G1 X117.123 Y99.122 E0.04238
G1 X116.748 Y98.903 E0.01380
G1 X121.097 Y103.252 E0.19554
G1 X121.494 Y103.932 E0.02503
G1 X121.715 Y104.410 E0.01675
G1 X115.590 Y98.286 E0.27539
G1 X114.779 Y97.912 E0.02839
G1 X114.621 Y97.857 E0.00534
G1 X122.144 Y105.380 E0.33828
G1 X122.426 Y106.204 E0.02768
G1 X113.797 Y97.574 E0.38801
G1 X113.586 Y97.502 E0.00710
G1 X113.058 Y97.376 E0.01727
G1 X122.625 Y106.943 E0.43017
G1 X122.790 Y107.649 E0.02305
G1 X112.352 Y97.211 E0.46933
G1 X111.730 Y97.129 E0.01996
G1 X122.877 Y108.277 E0.50126
G1 X122.956 Y108.897 E0.01986
G1 X111.107 Y97.047 E0.53279
G1 X110.536 Y97.017 E0.01820
G1 X122.983 Y109.464 E0.55967
G1 X123.006 Y110.028 E0.01796
G1 X109.972 Y96.994 E0.58608
G1 X109.455 Y97.018 E0.01645
G1 X122.982 Y110.545 E0.60824
G1 X122.958 Y111.062 E0.01645
G1 X108.938 Y97.042 E0.63040
G1 X108.454 Y97.098 E0.01551
G1 X122.902 Y111.546 E0.64966
G1 X122.836 Y112.021 E0.01523
G1 X107.979 Y97.164 E0.66802
G1 X107.514 Y97.239 E0.01499
G1 X122.761 Y112.486 E0.68558
G1 X122.657 Y112.923 E0.01427
G1 X107.077 Y97.344 E0.70053
G1 X106.641 Y97.448 E0.01427
G1 X122.553 Y113.360 E0.71547
G1 X122.432 Y113.780 E0.01390
G1 X106.220 Y97.568 E0.72895
G1 X105.818 Y97.707 E0.01353
G1 X111.862 Y103.751 E0.27176
G1 X111.321 Y103.751 E0.01719
G1 X105.415 Y97.845 E0.26555
G1 X105.030 Y98.000 E0.01322
G1 X110.780 Y103.751 E0.25858
G1 X110.240 Y103.751 E0.01719
G1 X104.660 Y98.171 E0.25090
G1 X104.290 Y98.341 E0.01296
G1 X109.699 Y103.751 E0.24322
G1 X109.158 Y103.751 E0.01719
