; generated by PrusaSlicer 2.2.0+linux-x64 on 2020-06-28 at 03:30:27 UTC

; 

; external perimeters extrusion width = 0.45mm
; perimeters extrusion width = 0.45mm
; infill extrusion width = 0.45mm
; solid infill extrusion width = 0.45mm
; top infill extrusion width = 0.40mm
; support material extrusion width = 0.38mm
; first layer extrusion width = 0.42mm

M201 X500 Y500 Z100 E5000 ; sets maximum accelerations, mm/sec^2
M203 X500 Y500 Z10 E60 ; sets maximum feedrates, mm/sec
M204 P500 R1000 T500 ; sets acceleration (P, T) and retract acceleration (R), mm/sec^2
M205 X8.00 Y8.00 Z0.40 E5.00 ; sets the jerk limits, mm/sec
M205 S0 T0 ; sets the minimum extruding and travel feed rate, mm/sec
M107
G90 ; use absolute coordinates
M83 ; extruder relative mode
M104 S215 ; set extruder temp
M140 S40 ; set bed temp
M190 S40 ; wait for bed temp
M109 S215 ; wait for extruder temp
G28 ; home all
G1 Z2 F240
G1 X2 Y10 F3000
G1 Z0.28 F240
G92 E0.0
G1 Y190 E15.0 F1500.0 ; intro line
G1 X2.3 F5000
G1 Y10 E30 F1200.0 ; intro line
G92 E0.0
G21 ; set units to millimeters
G90 ; use absolute coordinates
M83 ; use relative distances for extrusion
; Filament gcode
;BEFORE_LAYER_CHANGE
;0.2


G1 E-5.00000 F3600.00000
G1 Z0.200 F9000.000
;AFTER_LAYER_CHANGE
;0.2
G1 X138.127 Y81.264
G1 E5.00000 F2400.00000
G1 F1200.000
G1 X138.886 Y81.756 E0.02837
G1 X140.491 Y83.408 E0.07223
G1 X140.793 Y83.992 E0.02060
G1 X140.923 Y84.639 E0.02071
G1 X140.927 Y126.092 E1.29970
G1 X140.859 Y126.608 E0.01633
G1 X140.682 Y127.094 E0.01621
G1 X140.404 Y127.530 E0.01621
G1 X140.036 Y127.898 E0.01633
G1 X138.729 Y128.898 E0.05160
G1 X137.652 Y129.380 E0.03701
G1 X129.135 Y131.340 E0.27401
G1 X91.123 Y131.345 E1.19183
G1 X81.974 Y129.357 E0.29357
G1 X81.201 Y128.907 E0.02802
G1 X79.596 Y127.290 E0.07145
G1 X79.212 Y126.605 E0.02461
G1 X79.073 Y125.829 E0.02473
G1 X79.073 Y84.522 E1.29517
G1 X79.136 Y83.997 E0.01657
G1 X79.311 Y83.503 E0.01645
G1 X79.593 Y83.056 E0.01657
G1 X79.964 Y82.685 E0.01645
G1 X81.423 Y81.598 E0.05705
G1 X82.341 Y81.205 E0.03131
G1 X83.000 Y81.093 E0.02095
G1 X137.238 Y81.092 E1.70060
G1 X138.068 Y81.253 E0.02649
G1 E-3.50000 F3600.00000
G1 F7200.000
G1 X138.886 Y81.756 E-0.45634
G1 X140.307 Y83.219 E-0.96866
G1 E-0.07500 F3600.00000
G1 X81.450 Y84.541 F9000.000
G1 E5.00000 F2400.00000
G1 F1200.000
G1 X81.450 Y125.802 E1.29372
G1 X81.988 Y126.341 E0.02389
G1 X81.988 Y84.242 E1.31998
G1 X82.527 Y83.703 E0.02389
G1 X82.527 Y126.880 E1.35376
G1 X82.762 Y127.114 E0.01040
G1 X83.066 Y127.114 E0.00954
G1 X83.066 Y83.469 E1.36846
G1 X83.604 Y83.469 E0.01689
G1 X83.604 Y127.114 E1.36846
G1 X84.143 Y127.114 E0.01689
G1 X84.143 Y83.469 E1.36846
G1 X84.682 Y83.469 E0.01689
G1 X84.682 Y127.114 E1.36846
G1 X85.220 Y127.114 E0.01689
G1 X85.220 Y83.469 E1.36846
G1 X85.759 Y83.469 E0.01689
G1 X85.759 Y127.114 E1.36846
G1 X86.298 Y127.114 E0.01689
G1 X86.298 Y83.469 E1.36846
G1 X86.837 Y83.469 E0.01689
G1 X86.837 Y127.114 E1.36846
G1 X87.375 Y127.114 E0.01689
G1 X87.375 Y83.469 E1.36846
G1 X87.914 Y83.469 E0.01689
G1 X87.914 Y127.114 E1.36846
G1 X88.453 Y127.114 E0.01689
G1 X88.453 Y83.469 E1.36846
G1 X88.991 Y83.469 E0.01689
G1 X88.991 Y127.114 E1.36846
G1 X89.530 Y127.114 E0.01689
G1 X89.530 Y83.469 E1.36846
G1 X90.069 Y83.469 E0.01689
G1 X90.069 Y127.114 E1.36846
G1 X90.607 Y127.114 E0.01689
G1 X90.607 Y83.469 E1.36846
G1 X91.146 Y83.469 E0.01689
G1 X91.146 Y128.968 E1.42660
G1 X91.685 Y128.968 E0.01689
G1 X91.685 Y83.469 E1.42660
G1 X92.223 Y83.469 E0.01689
G1 X92.223 Y128.968 E1.42660
G1 X92.762 Y128.968 E0.01689
G1 X92.762 Y83.469 E1.42660
G1 X93.301 Y83.469 E0.01689
G1 X93.301 Y128.968 E1.42660
G1 X93.839 Y128.968 E0.01689
G1 X93.839 Y83.469 E1.42660
G1 X94.378 Y83.469 E0.01689
G1 X94.378 Y128.968 E1.42660
G1 X94.917 Y128.968 E0.01689
G1 X94.917 Y83.469 E1.42660
G1 X95.456 Y83.469 E0.01689
G1 X95.456 Y128.968 E1.42660
G1 X95.994 Y128.968 E0.01689
G1 X95.994 Y83.469 E1.42660
G1 X96.533 Y83.469 E0.01689
G1 X96.533 Y128.968 E1.42660
G1 X97.072 Y128.968 E0.01689
G1 X97.072 Y83.469 E1.42660
G1 X97.610 Y83.469 E0.01689
G1 X97.610 Y128.968 E1.42660
G1 X98.149 Y128.968 E0.01689
G1 X98.149 Y83.469 E1.42660
G1 X98.688 Y83.469 E0.01689
G1 X98.688 Y128.968 E1.42660
G1 X99.226 Y128.968 E0.01689
G1 X99.226 Y83.469 E1.42660
G1 X99.765 Y83.469 E0.01689
G1 X99.765 Y128.968 E1.42660
G1 X100.304 Y128.968 E0.01689
G1 X100.304 Y83.469 E1.42660
G1 X100.842 Y83.469 E0.01689
G1 X100.842 Y127.114 E1.36846
G1 X101.381 Y127.114 E0.01689
G1 X101.381 Y83.469 E1.36846
G1 X101.920 Y83.469 E0.01689
G1 X101.920 Y127.114 E1.36846
G1 X102.458 Y127.114 E0.01689
G1 X102.458 Y83.469 E1.36846
G1 X102.997 Y83.469 E0.01689
G1 X102.997 Y127.114 E1.36846
G1 X103.536 Y127.114 E0.01689
G1 X103.536 Y83.469 E1.36846
G1 X104.074 Y83.469 E0.01689
G1 X104.074 Y127.114 E1.36846
G1 X104.613 Y127.114 E0.01689
G1 X104.613 Y83.469 E1.36846
G1 X105.152 Y83.469 E0.01689
G1 X105.152 Y127.114 E1.36846
G1 X105.691 Y127.114 E0.01689
G1 X105.691 Y83.469 E1.36846
G1 X106.229 Y83.469 E0.01689
G1 X106.229 Y127.114 E1.36846
G1 X106.768 Y127.114 E0.01689
G1 X106.768 Y83.469 E1.36846
G1 X107.307 Y83.469 E0.01689
G1 X107.307 Y127.114 E1.36846
G1 X107.845 Y127.114 E0.01689
G1 X107.845 Y83.469 E1.36846
G1 X108.384 Y83.469 E0.01689
G1 X108.384 Y127.114 E1.36846
G1 X108.923 Y127.114 E0.01689
G1 X108.923 Y83.469 E1.36846
G1 X109.461 Y83.469 E0.01689
G1 X109.461 Y127.114 E1.36846
G1 X110.000 Y127.114 E0.01689
G1 X110.000 Y83.469 E1.36846
G1 X110.539 Y83.469 E0.01689
G1 X110.539 Y127.114 E1.36846
G1 X111.077 Y127.114 E0.01689
G1 X111.077 Y83.469 E1.36846
G1 X111.616 Y83.469 E0.01689
G1 X111.616 Y127.114 E1.36846
G1 X112.155 Y127.114 E0.01689
G1 X112.155 Y83.469 E1.36846
G1 X112.693 Y83.469 E0.01689
G1 X112.693 Y127.114 E1.36846
G1 X113.232 Y127.114 E0.01689
G1 X113.232 Y83.469 E1.36846
G1 X113.771 Y83.469 E0.01689
G1 X113.771 Y127.114 E1.36846
G1 X114.309 Y127.114 E0.01689
G1 X114.309 Y83.469 E1.36846
G1 X114.848 Y83.469 E0.01689
G1 X114.848 Y127.114 E1.36846
G1 X115.387 Y127.114 E0.01689
G1 X115.387 Y83.469 E1.36846
G1 X115.926 Y83.469 E0.01689
G1 X115.926 Y127.114 E1.36846
G1 X116.464 Y127.114 E0.01689
G1 X116.464 Y83.469 E1.36846
G1 X117.003 Y83.469 E0.01689
G1 X117.003 Y127.114 E1.36846
G1 X117.542 Y127.114 E0.01689
G1 X117.542 Y83.469 E1.36846
G1 X118.080 Y83.469 E0.01689
G1 X118.080 Y127.114 E1.36846
G1 X118.619 Y127.114 E0.01689
G1 X118.619 Y83.469 E1.36846
G1 X119.158 Y83.469 E0.01689
G1 X119.158 Y127.114 E1.36846
G1 X119.283 Y127.114 E0.00392
G1 X119.283 Y128.968 E0.05814
G1 X119.696 Y128.968 E0.01297
G1 X119.696 Y83.469 E1.42660
G1 X120.235 Y83.469 E0.01689
G1 X120.235 Y128.968 E1.42660
G1 X120.774 Y128.968 E0.01689
G1 X120.774 Y83.469 E1.42660
G1 X121.312 Y83.469 E0.01689
G1 X121.312 Y128.968 E1.42660
G1 X121.851 Y128.968 E0.01689
G1 X121.851 Y83.469 E1.42660
G1 X122.390 Y83.469 E0.01689
G1 X122.390 Y128.968 E1.42660
G1 X122.928 Y128.968 E0.01689
G1 X122.928 Y83.469 E1.42660
G1 X123.467 Y83.469 E0.01689
G1 X123.467 Y128.968 E1.42660
G1 X124.006 Y128.968 E0.01689
G1 X124.006 Y83.469 E1.42660
G1 X124.544 Y83.469 E0.01689
G1 X124.544 Y128.968 E1.42660
G1 X125.083 Y128.968 E0.01689
G1 X125.083 Y83.469 E1.42660
G1 X125.622 Y83.469 E0.01689
G1 X125.622 Y128.968 E1.42660
G1 X126.161 Y128.968 E0.01689
G1 X126.161 Y83.469 E1.42660
G1 X126.699 Y83.469 E0.01689
G1 X126.699 Y128.968 E1.42660
G1 X127.238 Y128.968 E0.01689
G1 X127.238 Y83.469 E1.42660
G1 X127.777 Y83.469 E0.01689
G1 X127.777 Y128.968 E1.42660
G1 X128.315 Y128.968 E0.01689
G1 X128.315 Y83.469 E1.42660
G1 X128.854 Y83.469 E0.01689
G1 X128.854 Y128.968 E1.42660
G1 X128.968 Y128.968 E0.00359
G1 X128.968 Y127.114 E0.05814
G1 X129.393 Y127.114 E0.01330
G1 X129.393 Y83.469 E1.36846
G1 X129.931 Y83.469 E0.01689
G1 X129.931 Y127.114 E1.36846
G1 X130.470 Y127.114 E0.01689
G1 X130.470 Y83.469 E1.36846
G1 X131.009 Y83.469 E0.01689
G1 X131.009 Y127.114 E1.36846
G1 X131.547 Y127.114 E0.01689
G1 X131.547 Y83.469 E1.36846
G1 X132.086 Y83.469 E0.01689
G1 X132.086 Y127.114 E1.36846
G1 X132.625 Y127.114 E0.01689
G1 X132.625 Y83.469 E1.36846
G1 X133.163 Y83.469 E0.01689
G1 X133.163 Y127.114 E1.36846
G1 X133.702 Y127.114 E0.01689
G1 X133.702 Y83.469 E1.36846
G1 X134.241 Y83.469 E0.01689
G1 X134.241 Y127.114 E1.36846
G1 X134.780 Y127.114 E0.01689
G1 X134.780 Y83.469 E1.36846
G1 X135.318 Y83.469 E0.01689
G1 X135.318 Y127.114 E1.36846
G1 X135.857 Y127.114 E0.01689
G1 X135.857 Y83.469 E1.36846
G1 X136.396 Y83.469 E0.01689
G1 X136.396 Y127.114 E1.36846
G1 X136.934 Y127.114 E0.01689
G1 X136.934 Y83.469 E1.36846
G1 X137.238 Y83.469 E0.00954
G1 X137.473 Y83.703 E0.01040
G1 X137.473 Y126.879 E1.35375
G1 X138.012 Y126.341 E0.02389
G1 X138.012 Y84.242 E1.31997
G1 X138.550 Y84.781 E0.02389
G1 X138.550 Y126.042 E1.29372
M106 S255
;BEFORE_LAYER_CHANGE
;0.5


G1 E-3.50000 F3600.00000
G1 F7200.000
G1 X138.550 Y123.042 E-1.42500
G1 E-0.07500 F3600.00000
G1 Z0.500 F9000.000
;AFTER_LAYER_CHANGE
;0.5
M104 S210 ; set temperature
G1 X138.127 Y81.264
G1 E5.00000 F2400.00000
G1 X138.886 Y81.756 E0.04013
G1 X140.491 Y83.408 E0.10218
G1 X140.793 Y83.992 E0.02913
G1 X140.923 Y84.639 E0.02930
G1 X140.927 Y126.092 E1.83860
G1 X140.859 Y126.608 E0.02310
G1 X140.682 Y127.094 E0.02293
G1 X140.404 Y127.530 E0.02293
G1 X140.036 Y127.898 E0.02310
G1 X138.729 Y128.898 E0.07300
G1 X137.652 Y129.380 E0.05235
G1 X129.135 Y131.340 E0.38763
G1 X91.123 Y131.345 E1.68600
G1 X81.974 Y129.357 E0.41530
G1 X81.201 Y128.907 E0.03963
G1 X79.596 Y127.290 E0.10107
G1 X79.212 Y126.605 E0.03481
G1 X79.073 Y125.829 E0.03498
G1 X79.073 Y84.522 E1.83219
G1 X79.136 Y83.997 E0.02344
G1 X79.311 Y83.503 E0.02327
G1 X79.593 Y83.056 E0.02344
G1 X79.964 Y82.685 E0.02327
G1 X81.423 Y81.598 E0.08071
G1 X82.341 Y81.205 E0.04430
G1 X83.000 Y81.093 E0.02964
G1 X137.238 Y81.092 E2.40573
G1 X138.068 Y81.253 E0.03747
G1 E-3.50000 F3600.00000
G1 F7200.000
G1 X138.886 Y81.756 E-0.45634
G1 X140.307 Y83.219 E-0.96866
G1 E-0.07500 F3600.00000
G1 X126.639 Y126.480 F9000.000
G1 E5.00000 F2400.00000
G1 X121.771 Y126.480 E0.19163
G1 X121.771 Y124.625 E0.07299
G1 X98.229 Y124.625 E0.92677
G1 X98.229 Y126.480 E0.07299
G1 X93.520 Y126.480 E0.18536
G1 X93.520 Y124.625 E0.07299
G1 X83.792 Y124.625 E0.38294
G1 X83.603 Y124.436 E0.01053
G1 X83.603 Y124.125 E0.01224
G1 X136.397 Y124.125 E2.07826
G1 X136.397 Y121.771 E0.09268
G1 X83.603 Y121.771 E2.07826
G1 X83.603 Y119.417 E0.09268
G1 X136.397 Y119.417 E2.07826
G1 X136.397 Y117.063 E0.09268
G1 X83.603 Y117.063 E2.07826
G1 X83.603 Y114.708 E0.09268
G1 X136.397 Y114.708 E2.07826
G1 X136.397 Y112.354 E0.09268
G1 X83.603 Y112.354 E2.07826
G1 X83.603 Y110.000 E0.09268
G1 X136.397 Y110.000 E2.07826
G1 X136.397 Y107.646 E0.09268
G1 X83.603 Y107.646 E2.07826
G1 X83.603 Y105.292 E0.09268
G1 X136.397 Y105.292 E2.07826
G1 X136.397 Y102.937 E0.09268
G1 X83.603 Y102.937 E2.07826
G1 X83.603 Y100.583 E0.09268
G1 X136.397 Y100.583 E2.07826
G1 X136.397 Y98.229 E0.09268
G1 X83.603 Y98.229 E2.07826
G1 X83.603 Y95.875 E0.09268
G1 X136.397 Y95.875 E2.07826
G1 X136.397 Y93.520 E0.09268
G1 X83.603 Y93.520 E2.07826
G1 X83.603 Y91.166 E0.09268
G1 X136.397 Y91.166 E2.07826
G1 X136.397 Y88.812 E0.09268
G1 X83.603 Y88.812 E2.07826
G1 X83.603 Y86.458 E0.09268
G1 X136.556 Y86.458 E2.08453
;BEFORE_LAYER_CHANGE
;0.8


G1 E-3.50000 F3600.00000
G1 F7200.000
G1 X133.556 Y86.458 E-1.42500
G1 E-0.07500 F3600.00000
G1 Z0.800 F9000.000
;AFTER_LAYER_CHANGE
;0.8
G1 X136.050 Y124.785
G1 E5.00000 F2400.00000
G1 X136.050 Y85.958 E1.52847
G1 X135.495 Y85.958 E0.02182
G1 X135.495 Y124.625 E1.52220
G1 X134.941 Y124.625 E0.02182
G1 X134.941 Y85.958 E1.52220
G1 X134.387 Y85.958 E0.02182
G1 X134.387 Y124.625 E1.52220
G1 X133.833 Y124.625 E0.02182
G1 X133.833 Y85.958 E1.52220
G1 X133.278 Y85.958 E0.02182
G1 X133.278 Y124.625 E1.52220
G1 X132.724 Y124.625 E0.02182
G1 X132.724 Y85.958 E1.52220
G1 X132.170 Y85.958 E0.02182
G1 X132.170 Y124.625 E1.52220
G1 X131.616 Y124.625 E0.02182
G1 X131.616 Y85.958 E1.52220
G1 X131.061 Y85.958 E0.02182
G1 X131.061 Y124.625 E1.52220
G1 X130.507 Y124.625 E0.02182
G1 X130.507 Y85.958 E1.52220
G1 X129.953 Y85.958 E0.02182
G1 X129.953 Y124.625 E1.52220
G1 X129.399 Y124.625 E0.02182
G1 X129.399 Y85.958 E1.52220
G1 X128.844 Y85.958 E0.02182
G1 X128.844 Y124.625 E1.52220
G1 X128.290 Y124.625 E0.02182
G1 X128.290 Y85.958 E1.52220
G1 X127.736 Y85.958 E0.02182
G1 X127.736 Y124.625 E1.52220
G1 X127.182 Y124.625 E0.02182
G1 X127.182 Y85.958 E1.52220
G1 X126.627 Y85.958 E0.02182
G1 X126.627 Y124.625 E1.52220
G1 X126.073 Y124.625 E0.02182
G1 X126.073 Y85.958 E1.52220
G1 X125.519 Y85.958 E0.02182
G1 X125.519 Y124.625 E1.52220
G1 X124.965 Y124.625 E0.02182
G1 X124.965 Y85.958 E1.52220
G1 X124.410 Y85.958 E0.02182
G1 X124.410 Y124.625 E1.52220
G1 X123.856 Y124.625 E0.02182
G1 X123.856 Y85.958 E1.52220
G1 X123.302 Y85.958 E0.02182
G1 X123.302 Y124.625 E1.52220
G1 X122.748 Y124.625 E0.02182
G1 X122.748 Y85.958 E1.52220
G1 X122.193 Y85.958 E0.02182
G1 X122.193 Y124.625 E1.52220
G1 X121.639 Y124.625 E0.02182
G1 X121.639 Y85.958 E1.52220
G1 X121.085 Y85.958 E0.02182
G1 X121.085 Y124.625 E1.52220
G1 X120.531 Y124.625 E0.02182
G1 X120.531 Y85.958 E1.52220
G1 X119.976 Y85.958 E0.02182
G1 X119.976 Y124.625 E1.52220
G1 X119.422 Y124.625 E0.02182
G1 X119.422 Y85.958 E1.52220
G1 X118.868 Y85.958 E0.02182
G1 X118.868 Y124.625 E1.52220
G1 X118.314 Y124.625 E0.02182
G1 X118.314 Y85.958 E1.52220
G1 X117.759 Y85.958 E0.02182
G1 X117.759 Y124.625 E1.52220
G1 X117.205 Y124.625 E0.02182
G1 X117.205 Y85.958 E1.52220
G1 X116.651 Y85.958 E0.02182
G1 X116.651 Y124.625 E1.52220
G1 X116.097 Y124.625 E0.02182
G1 X116.097 Y85.958 E1.52220
G1 X115.542 Y85.958 E0.02182
G1 X115.542 Y124.625 E1.52220
G1 X114.988 Y124.625 E0.02182
G1 X114.988 Y85.958 E1.52220
G1 X114.434 Y85.958 E0.02182
G1 X114.434 Y124.625 E1.52220
G1 X113.880 Y124.625 E0.02182
G1 X113.880 Y85.958 E1.52220
G1 X113.325 Y85.958 E0.02182
G1 X113.325 Y124.625 E1.52220
G1 X112.771 Y124.625 E0.02182
G1 X112.771 Y85.958 E1.52220
G1 X112.217 Y85.958 E0.02182
G1 X112.217 Y124.625 E1.52220
G1 X111.663 Y124.625 E0.02182
G1 X111.663 Y85.958 E1.52220
G1 X111.108 Y85.958 E0.02182
G1 X111.108 Y124.625 E1.52220
G1 X110.554 Y124.625 E0.02182
G1 X110.554 Y85.958 E1.52220
G1 X110.000 Y85.958 E0.02182
G1 X110.000 Y124.625 E1.52220
G1 X109.446 Y124.625 E0.02182
G1 X109.446 Y85.958 E1.52220
G1 X108.892 Y85.958 E0.02182
G1 X108.892 Y124.625 E1.52220
G1 X108.337 Y124.625 E0.02182
G1 X108.337 Y85.958 E1.52220
G1 X107.783 Y85.958 E0.02182
G1 X107.783 Y124.625 E1.52220
G1 X107.229 Y124.625 E0.02182
G1 X107.229 Y85.958 E1.52220
G1 X106.675 Y85.958 E0.02182
G1 X106.675 Y124.625 E1.52220
G1 X106.120 Y124.625 E0.02182
G1 X106.120 Y85.958 E1.52220
G1 X105.566 Y85.958 E0.02182
G1 X105.566 Y124.625 E1.52220
G1 X105.012 Y124.625 E0.02182
G1 X105.012 Y85.958 E1.52220
G1 X104.458 Y85.958 E0.02182
G1 X104.458 Y124.625 E1.52220
G1 X103.903 Y124.625 E0.02182
G1 X103.903 Y85.958 E1.52220
G1 X103.349 Y85.958 E0.02182
G1 X103.349 Y124.625 E1.52220
G1 X102.795 Y124.625 E0.02182
G1 X102.795 Y85.958 E1.52220
G1 X102.241 Y85.958 E0.02182
G1 X102.241 Y124.625 E1.52220
G1 X101.686 Y124.625 E0.02182
G1 X101.686 Y85.958 E1.52220
G1 X101.132 Y85.958 E0.02182
G1 X101.132 Y124.625 E1.52220
G1 X100.578 Y124.625 E0.02182
G1 X100.578 Y85.958 E1.52220
G1 X100.024 Y85.958 E0.02182
G1 X100.024 Y124.625 E1.52220
G1 X99.469 Y124.625 E0.02182
G1 X99.469 Y85.958 E1.52220
G1 X98.915 Y85.958 E0.02182
G1 X98.915 Y124.625 E1.52220
G1 X98.361 Y124.625 E0.02182
G1 X98.361 Y85.958 E1.52220
G1 X97.807 Y85.958 E0.02182
G1 X97.807 Y124.625 E1.52220
G1 X97.252 Y124.625 E0.02182
G1 X97.252 Y85.958 E1.52220
G1 X96.698 Y85.958 E0.02182
G1 X96.698 Y124.625 E1.52220
G1 X96.144 Y124.625 E0.02182
G1 X96.144 Y85.958 E1.52220
G1 X95.590 Y85.958 E0.02182
G1 X95.590 Y124.625 E1.52220
G1 X95.035 Y124.625 E0.02182
G1 X95.035 Y85.958 E1.52220
G1 X94.481 Y85.958 E0.02182
G1 X94.481 Y124.625 E1.52220
G1 X93.927 Y124.625 E0.02182
G1 X93.927 Y85.958 E1.52220
G1 X93.373 Y85.958 E0.02182
G1 X93.373 Y124.625 E1.52220
G1 X92.818 Y124.625 E0.02182
G1 X92.818 Y85.958 E1.52220
